X: 1
T: \"Orbyhuspolskan
T: (Bond Polska fr\aan Viksta)
C: Trad.
R: bond-polska
S: http://www.nyckelharpa.org/archive/written-music/american-allspel-list/ 2022/9/16
Z: 2022 John Chambers <jc:trillian.mit.edu>
M: 3/4
L: 1/16
Q: 1/4=108
K: G
B2 |\
(d2ed) B4 G3B | (e3d) B4 B3B | (d2ed) B4 G3B | (dBdB) A4 A3A |
A3B A4 F3A | d4 d6 dd | (f3e) (d3c) B3A | G4 G6 :|
|:\
D4 (D3B,) D3G | B4 (BcBA) G3F | E4 (E3C) E3G | c4 (cdcB) A3G |
F4 (F3G) F3E | (ED3) D8 |[1 (B,3C) (D3E) D3C | (C3B,) B,8 :|[2 (D3B,) (D3G) B3A | (A3G) G8 ||
|: B2 |\
d4 (3(B2d2B2) G3B | d4 B4 B3B | [G4G,4C,] [c4C4] [G3G,3C,3]c | e3(e c4) c3c |
D3(D F4) D3F | A3(A F4) F3D | D3D (EDE2) (FEF2) | G4 G6 :|
